X:1
T:Compton Chronicles
C:ABC Assistant
M:4/4
Q:1/4=93
K:Gmin
L:1/16
% Intro
z4  | "Gm"G,3A,B,2G,2 | "Cm7"C3D,E2C2 |  "D7"D3E,F2D2 |"Gm"G,3A,B,2G,2 :|
% Verse
"Gm"G,G,2 A,2A,2 | "Cm7"C,C,2 D,2D,2 |"D"D,3D,2F,2G,2 | "Gm"G,3G,2B,2A,2:|
% Chorus
"Cm7"D3C E3D | "D"F,3E, G,3F, | "Cm7"D3C E3D | "D"F,3G,2G,2F,2E,2:|
% Bridge
xFC |"Em7"G4 z2G2 | "Am7"A4 z2A2 | "Bb7"B4 z2B2 | "Cm7"C4 z2C2:|
% Outro
z4  | "Gm"G,3A,B,2G,2 | "Cm7"C3D,E2C2 |  "D7"D3E,F2D2 |"Gm"G,3A,B,2G,2 :| 
%Repeat "Chorus" and "Verses" again
```

Please note that ABC notation might not fully reflect the complexities of a progressive jazz piece, and it is recommended to provide sheet music for performing musicians for best results.